trunk/WorldWind/resources/milstd2525/icons/ems/efoacc---------.svg

<?xml version="1.0" encoding="UTF-8" standalone="no"?>
<!--
Copyright (C) 2012 United States Government as represented by the Administrator of the
National Aeronautics and Space Administration.
All Rights Reserved.
-->

<!--
MIL-STD-2525 tactical symbol icon image. During icon composition this image is multiplied by the desired frame color 
(e.g. black), then drawn on top of the frame and fill.
-->

<svg
   xmlns:dc="http://purl.org/dc/elements/1.1/"
   xmlns:cc="http://creativecommons.org/ns#"
   xmlns:rdf="http://www.w3.org/1999/02/22-rdf-syntax-ns#"
   xmlns:svg="http://www.w3.org/2000/svg"
   xmlns="http://www.w3.org/2000/svg"
   xmlns:sodipodi="http://sodipodi.sourceforge.net/DTD/sodipodi-0.dtd"
   xmlns:inkscape="http://www.inkscape.org/namespaces/inkscape"
   height="400px"
   viewBox="0 0 400 400"
   width="400px"
   id="svg2"
   version="1.1"
   inkscape:version="0.48.2 r9819"
   sodipodi:docname="efoacc---------.svg">
  <metadata
     id="metadata32">
    <rdf:RDF>
      <cc:Work
         rdf:about="">
        <dc:format>image/svg+xml</dc:format>
        <dc:type
           rdf:resource="http://purl.org/dc/dcmitype/StillImage" />
      </cc:Work>
    </rdf:RDF>
  </metadata>
  <defs
     id="defs30" />
  <sodipodi:namedview
     pagecolor="#ffffff"
     bordercolor="#666666"
     borderopacity="1"
     objecttolerance="10"
     gridtolerance="10"
     guidetolerance="10"
     inkscape:pageopacity="0"
     inkscape:pageshadow="2"
     inkscape:window-width="640"
     inkscape:window-height="480"
     id="namedview28"
     showgrid="false"
     inkscape:zoom="0.59"
     inkscape:cx="200"
     inkscape:cy="200"
     inkscape:window-x="184"
     inkscape:window-y="81"
     inkscape:window-maximized="0"
     inkscape:current-layer="svg2" />
  <g
     transform="matrix(140,0,0,140,25.99996,25.99996)"
     id="g4">
    <path
       inkscape:connector-curvature="0"
       d="m 1.21083,0.670409 -0.03616,0 0,0.036161 -0.01447,0 c -0.09307,0 -0.177165,0.09002 -0.184606,0.173858 L 1.13841,0.871188 1.13489,0.872913 1.31211,0.872023 1.4965,0.876527 C 1.49304,0.834928 1.45506,0.781393 1.43059,0.758019 1.3926,0.721731 1.35544,0.716424 1.29761,0.702956 l 0,-0.032547 -0.03615,0 0,-0.068705 -0.05063,0 z"
       style="fill:#ffffff;stroke:#000000;stroke-width:0.04285714;stroke-miterlimit:4;stroke-opacity:1;stroke-dasharray:0.08571429, 0.04285714;stroke-dashoffset:0"
       id="path6" />
    <path
       inkscape:connector-curvature="0"
       d="M 1.22891,0.97778 1.25785,0.976867 1.53989,0.981394 C 1.56482,0.964709 1.56063,0.969918 1.55798,0.938 1.47794,0.919355 1.14953,0.909622 1.05611,0.924304 1.02061,0.929886 0.970673,0.925689 0.932603,0.930981 0.902677,0.935138 0.886772,0.981559 0.964933,0.981394 1.05585,0.981205 1.13646,0.97778 1.22891,0.97778 z"
       style="fill:#ffffff;stroke:#000000;stroke-width:0.04285714;stroke-miterlimit:4;stroke-opacity:1;stroke-dasharray:0.08571429, 0.04285714;stroke-dashoffset:0"
       id="path8" />
    <path
       inkscape:connector-curvature="0"
       d="m 1.19637,1.30323 c 0.00639,0.00954 0.01442,0.03254 0.02531,0.03254 l 0.02532,0 c 0.00924,0 0.02531,-0.02791 0.02531,-0.02893 0,-0.01267 -0.01367,-0.03616 -0.02531,-0.03616 l -0.02532,0 c -0.01089,0 -0.01892,0.02301 -0.02531,0.03255 z"
       style="fill:#ffffff;stroke:#000000;stroke-width:0.04285714;stroke-miterlimit:4;stroke-opacity:1;stroke-dasharray:0.08571429, 0.04285714;stroke-dashoffset:0"
       id="path10" />
    <path
       inkscape:connector-curvature="0"
       d="M 1.19637,1.30323 C 1.20276,1.29369 1.21079,1.27068 1.22168,1.27068 l 0.02532,0 c 0.01164,0 0.02531,0.02349 0.02531,0.03616 0,0.00102 -0.01607,0.02893 -0.02531,0.02893 l -0.02532,0 c -0.01089,0 -0.01892,-0.023 -0.02531,-0.03254 z m -0.05063,0 0.03978,0.07594 0.0904,0 c 0.01253,0 0.04257,-0.0639 0.0507,-0.07598 l -0.04346,-0.07952 -0.08679,0 c -0.0139,0 -0.04333,0.06577 -0.05063,0.07956 z"
       style="fill:#000000;stroke:#000000;stroke-width:0.04285714;stroke-miterlimit:4;stroke-opacity:1;stroke-dasharray:0.08571429, 0.04285714;stroke-dashoffset:0"
       id="path12" />
    <polygon
       points="0.813063,1.43341 0.813063,1.12604 0.762437,1.12604 0.762437,1.24537 0.700965,1.24537 0.700965,1.31407 0.762437,1.31407 0.762437,1.43341 "
       style="fill:#ffffff;stroke:#000000;stroke-width:0.04285714;stroke-miterlimit:4;stroke-opacity:1;stroke-dasharray:0.08571429, 0.04285714;stroke-dashoffset:0"
       id="polygon14" />
    <polygon
       points="1.70985,1.24537 1.70985,1.12604 1.65561,1.12604 1.65561,1.43341 1.70985,1.43341 1.70985,1.31407 1.76771,1.31407 1.76771,1.24537 "
       style="fill:#ffffff;stroke:#000000;stroke-width:0.04285714;stroke-miterlimit:4;stroke-opacity:1;stroke-dasharray:0.08571429, 0.04285714;stroke-dashoffset:0"
       id="polygon16" />
    <path
       inkscape:connector-curvature="0"
       d="M 1.14574,1.30323 C 1.15304,1.28944 1.18247,1.22367 1.19637,1.22367 l 0.08678,0 0.04347,0.07952 C 1.31848,1.31527 1.28844,1.37917 1.27592,1.37917 l -0.0904,0 z m 0.0687,0.16272 0.0434,0 c 0.07196,0 0.14413,-0.08686 0.14413,-0.16272 0,-0.0783 -0.07272,-0.16272 -0.14775,-0.16272 l -0.03616,0 c -0.07373,0 -0.14569,0.08174 -0.14842,0.15921 -0.00274,0.07765 0.07424,0.16623 0.1448,0.16623 z"
       style="fill:#ffffff;stroke:#000000;stroke-width:0.04285714;stroke-miterlimit:4;stroke-opacity:1;stroke-dasharray:0.08571429, 0.04285714;stroke-dashoffset:0"
       id="path18" />
    <path
       inkscape:connector-curvature="0"
       d="M 1.21445,1.46595 C 1.14388,1.46595 1.06691,1.37736 1.06964,1.29972 1.07237,1.22225 1.14434,1.1405 1.21807,1.1405 l 0.03616,0 c 0.07502,0 0.14775,0.08442 0.14775,0.16273 0,0.07585 -0.07217,0.16272 -0.14414,0.16272 z m -0.18803,-0.17719 0,0.03254 c 0,0.09229 0.09629,0.19166 0.18803,0.19166 l 0.04339,0 c 0.09977,0 0.19166,-0.10422 0.19166,-0.20973 0,-0.10735 -0.09371,-0.20974 -0.19527,-0.20974 l -0.03616,0 c -0.0965,0 -0.19166,0.09773 -0.19166,0.19527 z"
       style="fill:#000000;stroke:#000000;stroke-width:0.04285714;stroke-miterlimit:4;stroke-opacity:1;stroke-dasharray:0.08571429, 0.04285714;stroke-dashoffset:0"
       id="path20" />
    <path
       inkscape:connector-curvature="0"
       d="m 1.02641,1.28876 c 0,-0.09754 0.09515,-0.19527 0.19165,-0.19527 l 0.03616,0 c 0.10156,0 0.19527,0.10239 0.19527,0.20973 0,0.10552 -0.09188,0.20974 -0.19165,0.20974 l -0.04339,0 C 1.1227,1.51296 1.02641,1.41359 1.02641,1.3213 z m -0.050642,-0.2608 1.6e-5,0.1487 -0.112098,0 0,0.21335 0.112098,0 -9.8e-4,0.30804 -0.082189,0.02826 C 0.911426,1.75198 1.11516,1.78417 1.17828,1.78417 l 0.11572,0 c 0.06426,0 0.26212,-0.03065 0.28251,-0.05924 L 1.4965,1.70099 l 0,-0.31098 0.1121,0 0,-0.21335 -0.1121,0 2e-5,-0.1487 L 1.27592,1.02117 1.19631,1.01973 0.975769,1.02796 z"
       style="fill:#ffffff;stroke:#000000;stroke-width:0.04285714;stroke-miterlimit:4;stroke-opacity:1;stroke-dasharray:0.08571429, 0.04285714;stroke-dashoffset:0"
       id="path22" />
    <path
       inkscape:connector-curvature="0"
       d="M 1.17829,1.83479 C 1.11914,1.83479 1.06557,1.82632 1.01582,1.81646 0.980605,1.80948 0.90129,1.77886 0.878157,1.77694 l 0,0.01807 c 0,0.0508 0.227113,0.07956 0.300133,0.07956 l 0.11572,0 c 0.07327,0 0.29652,-0.02825 0.29652,-0.07956 l 0,-0.01807 C 1.56851,1.77877 1.48921,1.80923 1.45287,1.81646 1.40308,1.82637 1.35369,1.83479 1.29401,1.83479 z"
       style="fill:#ffffff;stroke:#000000;stroke-width:0.04285714;stroke-miterlimit:4;stroke-opacity:1;stroke-dasharray:0.08571429, 0.04285714;stroke-dashoffset:0"
       id="path26" />
  </g>
</svg>

<?xml version="1.0"?>
<!--
Copyright (C) 2012 United States Government as represented by the Administrator of the
National Aeronautics and Space Administration.
All Rights Reserved.
-->

<!DOCTYPE svg PUBLIC "-//W3C//DTD SVG 1.1//EN" "http://www.w3.org/Graphics/SVG/1.1/DTD/svg11.dtd" >
<!--
MIL-STD-2525 tactical symbol icon image. During icon composition this image is multiplied by the desired frame color 
(e.g. black), then drawn on top of the frame and fill.
-->
<svg xmlns:xlink="http://www.w3.org/1999/xlink" height="400px" viewBox="0 0 400 400" width="400px"><g transform="scale(140) translate(0.185714 0.185714)"><path d="M1.21083 0.670409 L1.17467 0.670409 L1.17467 0.70657 L1.1602 0.70657 C1.06713 0.70657     0.983035 0.79659 0.975594 0.880428 L1.13841 0.871188 L1.13489 0.872913     L1.31211 0.872023 L1.4965 0.876527 C1.49304 0.834928 1.45506 0.781393 1.43059     0.758019 C1.3926 0.721731 1.35544 0.716424 1.29761 0.702956 L1.29761 0.670409     L1.26146 0.670409 L1.26146 0.601704 L1.21083 0.601704 z" style="fill:rgb(255,255,255)"/><path d="M1.22891 0.97778 L1.25785 0.976867 L1.53989 0.981394 C1.56482 0.964709 1.56063 0.969918     1.55798 0.938 C1.47794 0.919355 1.14953 0.909622 1.05611 0.924304 C1.02061     0.929886 0.970673 0.925689 0.932603 0.930981 C0.902677 0.935138 0.886772     0.981559 0.964933 0.981394 C1.05585 0.981205 1.13646 0.97778 1.22891 0.97778     z" style="fill:rgb(255,255,255)"/><path d="M1.19637 1.30323 C1.20276 1.31277 1.21079 1.33577 1.22168 1.33577 L1.247 1.33577     C1.25624 1.33577 1.27231 1.30786 1.27231 1.30684 C1.27231 1.29417 1.25864 1.27068     1.247 1.27068 L1.22168 1.27068 C1.21079 1.27068 1.20276 1.29369 1.19637     1.30323 z" style="fill:rgb(255,255,255)"/><path d="M1.19637 1.30323 C1.20276 1.29369 1.21079 1.27068 1.22168 1.27068 L1.247 1.27068     C1.25864 1.27068 1.27231 1.29417 1.27231 1.30684 C1.27231 1.30786 1.25624 1.33577     1.247 1.33577 L1.22168 1.33577 C1.21079 1.33577 1.20276 1.31277 1.19637     1.30323 zM1.14574 1.30323 L1.18552 1.37917 L1.27592 1.37917 C1.28845 1.37917     1.31849 1.31527 1.32662 1.30319 L1.28316 1.22367 L1.19637 1.22367 C1.18247     1.22367 1.15304 1.28944 1.14574 1.30323 z" style="fill:rgb(0,0,0)"/><polygon points="0.762437,1.24537 0.700965,1.24537 0.700965,1.31407 0.762437,1.31407 0.762437,1.43341     0.813063,1.43341 0.813063,1.12604 0.762437,1.12604" style="fill:rgb(255,255,255)"/><polygon points="1.65561,1.43341 1.70985,1.43341 1.70985,1.31407 1.76771,1.31407 1.76771,1.24537 1.70985,1.24537     1.70985,1.12604 1.65561,1.12604" style="fill:rgb(255,255,255)"/><path d="M1.14574 1.30323 C1.15304 1.28944 1.18247 1.22367 1.19637 1.22367 L1.28315 1.22367     L1.32662 1.30319 C1.31848 1.31527 1.28844 1.37917 1.27592 1.37917 L1.18552     1.37917 zM1.21444 1.46595 L1.25784 1.46595 C1.3298 1.46595 1.40197 1.37909     1.40197 1.30323 C1.40197 1.22493 1.32925 1.14051 1.25422 1.14051 L1.21806 1.14051     C1.14433 1.14051 1.07237 1.22225 1.06964 1.29972 C1.0669 1.37737 1.14388     1.46595 1.21444 1.46595 z" style="fill:rgb(255,255,255)"/><path d="M1.21445 1.46595 C1.14388 1.46595 1.06691 1.37736 1.06964 1.29972 C1.07237 1.22225     1.14434 1.1405 1.21807 1.1405 L1.25423 1.1405 C1.32925 1.1405 1.40198 1.22492     1.40198 1.30323 C1.40198 1.37908 1.32981 1.46595 1.25784 1.46595 zM1.02642     1.28876 L1.02642 1.3213 C1.02642 1.41359 1.12271 1.51296 1.21445 1.51296     L1.25784 1.51296 C1.35761 1.51296 1.4495 1.40874 1.4495 1.30323 C1.4495 1.19588     1.35579 1.09349 1.25423 1.09349 L1.21807 1.09349 C1.12157 1.09349 1.02641     1.19122 1.02641 1.28876 z" style="fill:rgb(0,0,0)"/><path d="M1.02641 1.28876 C1.02641 1.19122 1.12156 1.09349 1.21806 1.09349 L1.25422 1.09349     C1.35578 1.09349 1.44949 1.19588 1.44949 1.30322 C1.44949 1.40874 1.35761     1.51296 1.25784 1.51296 L1.21445 1.51296 C1.1227 1.51296 1.02641 1.41359 1.02641     1.3213 zM0.975768 1.02796 L0.975784 1.17666 L0.863686 1.17666 L0.863686     1.39001 L0.975784 1.39001 L0.974804 1.69805 L0.892615 1.72631 C0.911426 1.75198     1.11516 1.78417 1.17828 1.78417 L1.294 1.78417 C1.35826 1.78417 1.55612     1.75352 1.57651 1.72493 L1.4965 1.70099 L1.4965 1.39001 L1.6086 1.39001 L1.6086     1.17666 L1.4965 1.17666 L1.49652 1.02796 L1.27592 1.02117 L1.19631 1.01973     L0.975769 1.02796 z" style="fill:rgb(255,255,255)"/><path d="M0.878154 1.79502 L0.878154 1.77694 C0.901288 1.77887 0.980603 1.80949 1.01581 1.81646     C1.06557 1.82633 1.11914 1.8348 1.17829 1.8348 L1.294 1.8348 C1.35369     1.8348 1.40307 1.82637 1.45286 1.81646 C1.4892 1.80924 1.5685 1.77877 1.59052     1.77694 L1.59052 1.79502 C1.59052 1.84633 1.36728 1.87458 1.294 1.87458 L1.17829     1.87458 C1.10527 1.87458 0.878152 1.84581 0.878152 1.79502 zM1.19632     1.01974 L1.27592 1.02118 L1.49652 1.02797 L1.4965 1.17667 L1.6086 1.17667 L1.6086     1.39002 L1.4965 1.39002 L1.4965 1.701 L1.57652 1.72494 C1.55612 1.75353     1.35826 1.78417 1.294 1.78417 L1.17829 1.78417 C1.11516 1.78417 0.911428 1.75199     0.892617 1.72631 L0.974806 1.69805 L0.975787 1.39002 L0.863689 1.39002     L0.863689 1.17667 L0.975787 1.17667 L0.975771 1.02797 L1.19631 1.01974 zM1.65561     1.12604 L1.70985 1.12604 L1.70985 1.24537 L1.76771 1.24537 L1.76771 1.31408     L1.70985 1.31408 L1.70985 1.43341 L1.65561 1.43341 zM0.762437 1.12604     L0.813063 1.12604 L0.813063 1.43341 L0.762437 1.43341 L0.762437 1.31408 L0.700965     1.31408 L0.700965 1.24537 L0.762437 1.24537 zM1.22891 0.977783 C1.13646     0.977783 1.05585 0.981208 0.964937 0.981397 C0.886776 0.981563 0.902681 0.935141     0.932606 0.930984 C0.970677 0.925692 1.02061 0.929889 1.05611 0.924307     C1.14954 0.909626 1.47795 0.919358 1.55798 0.938004 C1.56063 0.969921 1.56482     0.964712 1.5399 0.981397 L1.25786 0.97687 zM1.21083 0.601708 L1.26146 0.601708     L1.26146 0.670413 L1.29762 0.670413 L1.29762 0.70296 C1.35544 0.716428     1.39261 0.721736 1.43059 0.758023 C1.45507 0.781397 1.49304 0.834932 1.4965     0.876531 L1.31211 0.872027 L1.1349 0.872917 L1.13841 0.871192 L0.975597 0.880432     C0.983038 0.796594 1.06713 0.706574 1.16021 0.706574 L1.17467 0.706574     L1.17467 0.670413 L1.21083 0.670413 zM1.16382 0.623405 L1.12766 0.623405     L1.12766 0.663181 C1.02663 0.67159 0.937716 0.779945 0.928779 0.887382 C0.888933     0.890696 0.887996 0.909685 0.868204 0.923685 L0.863689 0.952468 C0.857322     0.992283 0.899204 1.02152 0.928779 1.02841 L0.928779 1.12604 L0.863689 1.12604     L0.863689 1.08265 L0.715429 1.08265 L0.715429 1.20198 L0.65757 1.20198     L0.65757 1.36109 L0.715429 1.36109 L0.715429 1.47319 L0.863689 1.47319 L0.863689     1.42979 L0.928779 1.42979 L0.928779 1.66122 C0.887338 1.67088 0.831141     1.69755 0.831141 1.74801 L0.831141 1.78417 C0.831141 1.89727 1.06109 1.92158     1.18552 1.92158 L1.29039 1.92158 C1.41429 1.92158 1.63753 1.89928 1.63753     1.78417 L1.63753 1.74801 C1.63753 1.69843 1.58433 1.67073 1.54352 1.66122 L1.54352     1.42979 L1.6086 1.42979 L1.6086 1.47319 L1.75325 1.47319 L1.75325 1.36109     L1.81111 1.36109 L1.81111 1.19837 L1.75325 1.19837 L1.75325 1.08265 L1.6086     1.08265 L1.6086 1.12604 L1.54352 1.12604 L1.54352 1.02841 C1.57232 1.0217     1.6086 0.996106 1.6086 0.9597 C1.6086 0.919527 1.57996 0.890413 1.54352 0.887382     C1.53485 0.783221 1.44172 0.671563 1.34101 0.663181 L1.34101 0.623405     L1.30485 0.623405 L1.30485 0.551082 L1.16382 0.551082 z" style="fill:rgb(0,0,0)"/><path d="M1.17829 1.83479 C1.11914 1.83479 1.06557 1.82632 1.01582 1.81646 C0.980605 1.80948     0.90129 1.77886 0.878157 1.77694 L0.878157 1.79501 C0.878157 1.84581 1.10527     1.87457 1.17829 1.87457 L1.29401 1.87457 C1.36728 1.87457 1.59053 1.84632     1.59053 1.79501 L1.59053 1.77694 C1.56851 1.77877 1.48921 1.80923 1.45287     1.81646 C1.40308 1.82637 1.35369 1.83479 1.29401 1.83479 z" style="fill:rgb(255,255,255)"/></g></svg>
